usr/share/icons/biglinux-icons-material/scalable/apps/gwenview.svg

<svg width="24" height="24" viewBox="0 0 24 24" fill="none" xmlns="http://www.w3.org/2000/svg">
<path fill-rule="evenodd" clip-rule="evenodd" d="M9.59604 1.11359C9.71588 1.11486 9.83043 1.0996 9.93969 1.06779C11.3755 0.973736 12.8111 0.977551 14.2467 1.07924C15.5484 1.18066 16.8085 1.46308 18.0269 1.9265C20.0525 2.76044 21.4386 4.2069 22.185 6.26586C22.6119 7.50549 22.8639 8.78021 22.9411 10.09C23.0478 11.7347 23.0096 13.3758 22.8265 15.0133C22.6895 16.1642 22.3916 17.271 21.933 18.3336C21.0824 20.1761 19.704 21.447 17.7978 22.1463C16.2531 22.6682 14.6647 22.943 13.0325 22.9706C11.1966 23.0661 9.37913 22.9287 7.57997 22.5585C4.26839 21.8208 2.22559 19.8018 1.45158 16.5017C1.12311 15.0161 0.974199 13.5124 1.00483 11.9906C0.968176 10.3724 1.14 8.77709 1.52031 7.20471C2.33171 4.11908 4.2905 2.20701 7.39669 1.46852C8.12048 1.29157 8.8536 1.17326 9.59604 1.11359Z" fill="#37474F"/>
<path fill-rule="evenodd" clip-rule="evenodd" d="M10.2831 2.88983C10.192 2.91633 10.0966 2.92905 9.9967 2.92799C9.378 2.97772 8.76707 3.07631 8.16391 3.22377C5.57542 3.83917 3.94309 5.43256 3.26692 8.00393C2.95 9.31424 2.80681 10.6437 2.83736 11.9922C2.81183 13.2604 2.93593 14.5135 3.20965 15.7514C3.85466 18.5015 5.55699 20.184 8.31664 20.7987C9.26834 20.9946 10.2262 21.1122 11.1902 21.1517H12.6552C12.7236 21.1489 12.792 21.1458 12.8604 21.1422C14.2206 21.1192 15.5443 20.8902 16.8315 20.4552C18.42 19.8725 19.5687 18.8134 20.2775 17.278C20.6597 16.3925 20.9079 15.4701 21.0221 14.511C21.1747 13.1465 21.2065 11.7789 21.1175 10.4083C21.0533 9.31684 20.8433 8.25458 20.4875 7.22155C19.8655 5.50575 18.7104 4.30036 17.0224 3.60542C16.0071 3.21924 14.957 2.98389 13.8723 2.89937C13.2519 2.85542 12.6316 2.83341 12.0112 2.83333C12.0089 2.83333 12.0066 2.83333 12.0043 2.83333C11.4306 2.83341 10.8568 2.85224 10.2831 2.88983Z" fill="#A341B4"/>
<path fill-rule="evenodd" clip-rule="evenodd" d="M10.8095 2.8606C10.634 2.86859 10.4586 2.87833 10.2831 2.88983C10.192 2.91633 10.0966 2.92905 9.9967 2.92799C9.378 2.97772 8.76707 3.07631 8.16391 3.22377C5.57542 3.83917 3.94309 5.43256 3.26692 8.00393C2.95 9.31424 2.80681 10.6437 2.83736 11.9922C2.8133 13.1874 2.92213 14.3691 3.16386 15.5374L10.8095 2.8606Z" fill="#F4416B"/>
<path fill-rule="evenodd" clip-rule="evenodd" d="M11.6 21.1638C10.4975 21.144 9.40305 21.0223 8.31664 20.7987C6.51276 20.3969 5.16065 19.5389 4.2603 18.2246L20.586 7.51997C20.8823 8.45887 21.0595 9.42166 21.1175 10.4083C21.2065 11.7789 21.1747 13.1465 21.0221 14.511C20.9079 15.4701 20.6597 16.3925 20.2775 17.278C19.5687 18.8134 18.42 19.8725 16.8315 20.4552C15.5443 20.8902 14.2206 21.1192 12.8604 21.1422C12.6545 21.1529 12.4489 21.1601 12.2436 21.1638H11.6Z" fill="#8A5CD8"/>
<path fill-rule="evenodd" clip-rule="evenodd" d="M20.3723 17.0508C20.3417 17.1268 20.3101 17.2026 20.2775 17.278C19.5687 18.8134 18.42 19.8725 16.8315 20.4552C15.5443 20.8902 14.2206 21.1192 12.8604 21.1422C11.3305 21.2218 9.81594 21.1073 8.31664 20.7987C7.45734 20.6073 6.70056 20.3124 6.04629 19.9139L20.3723 17.0508Z" fill="#46A9D6"/>
</svg>

<svg xmlns="http://www.w3.org/2000/svg" width="24" height="24" fill="none"><path fill="#37474F" fill-rule="evenodd" d="M9.596 1.114c.12 0 .234-.014.344-.046a31.627 31.627 0 0 1 4.307.011c1.301.102 2.561.384 3.78.848 2.025.833 3.412 2.28 4.158 4.339.427 1.24.679 2.514.756 3.824a27.94 27.94 0 0 1-.114 4.923 11.88 11.88 0 0 1-.894 3.32c-.85 1.843-2.229 3.114-4.135 3.813a15.624 15.624 0 0 1-4.765.825 21.423 21.423 0 0 1-5.453-.413c-3.312-.737-5.354-2.756-6.128-6.056a19.047 19.047 0 0 1-.447-4.511 18.491 18.491 0 0 1 .515-4.786c.812-3.086 2.77-4.998 5.877-5.736a13.953 13.953 0 0 1 2.199-.355Z" clip-rule="evenodd"/><path fill="#A341B4" fill-rule="evenodd" d="M10.283 2.89a.982.982 0 0 1-.286.038c-.619.05-1.23.148-1.833.296-2.589.615-4.22 2.209-4.897 4.78a15.41 15.41 0 0 0-.43 3.988 15.871 15.871 0 0 0 .373 3.76c.645 2.75 2.347 4.432 5.107 5.047.951.196 1.91.313 2.873.353h1.465l.205-.01a13.017 13.017 0 0 0 3.971-.687c1.589-.582 2.738-1.642 3.447-3.177a9.9 9.9 0 0 0 .744-2.767c.153-1.364.184-2.732.096-4.103a11.883 11.883 0 0 0-.63-3.186c-.622-1.716-1.778-2.922-3.466-3.617a11.28 11.28 0 0 0-3.15-.706c-.62-.044-1.24-.066-1.86-.066h-.008c-.573 0-1.147.02-1.72.057Z" clip-rule="evenodd"/><path fill="#F4416B" fill-rule="evenodd" d="M10.81 2.86c-.176.009-.351.018-.527.03a.982.982 0 0 1-.286.038c-.619.05-1.23.148-1.833.296-2.589.615-4.22 2.209-4.897 4.78a15.41 15.41 0 0 0-.43 3.988 15.866 15.866 0 0 0 .327 3.545L10.81 2.861Z" clip-rule="evenodd"/><path fill="#8A5CD8" fill-rule="evenodd" d="M11.6 21.164a17.842 17.842 0 0 1-3.283-.365c-1.804-.402-3.156-1.26-4.057-2.574L20.586 7.52c.296.939.474 1.902.532 2.888.088 1.37.057 2.739-.096 4.103a9.9 9.9 0 0 1-.744 2.767c-.71 1.535-1.858 2.595-3.447 3.177-1.287.435-2.61.664-3.97.687-.207.01-.412.018-.617.022H11.6Z" clip-rule="evenodd"/><path fill="#46A9D6" fill-rule="evenodd" d="M20.372 17.05c-.03.077-.062.153-.095.228-.708 1.535-1.857 2.595-3.446 3.177-1.287.435-2.61.664-3.97.687-1.53.08-3.045-.035-4.544-.343-.86-.192-1.616-.487-2.27-.885l14.325-2.863Z" clip-rule="evenodd"/></svg>
